icons/svg/landuse/nature_reserve.svg

<?xml version="1.0" encoding="UTF-8" standalone="no"?>
<!-- Created with Inkscape (http://www.inkscape.org/) -->

<svg
   xmlns:dc="http://purl.org/dc/elements/1.1/"
   xmlns:cc="http://creativecommons.org/ns#"
   xmlns:rdf="http://www.w3.org/1999/02/22-rdf-syntax-ns#"
   xmlns:svg="http://www.w3.org/2000/svg"
   xmlns="http://www.w3.org/2000/svg"
   xmlns:sodipodi="http://sodipodi.sourceforge.net/DTD/sodipodi-0.dtd"
   xmlns:inkscape="http://www.inkscape.org/namespaces/inkscape"
   version="1.0"
   width="580"
   height="580"
   id="svg2"
   sodipodi:version="0.32"
   inkscape:version="0.91 r"
   sodipodi:docname="nature_reserve.svg"
   inkscape:output_extension="org.inkscape.output.svg.inkscape">
  <metadata
     id="metadata10">
    <rdf:RDF>
      <cc:Work
         rdf:about="">
        <dc:format>image/svg+xml</dc:format>
        <dc:type
           rdf:resource="http://purl.org/dc/dcmitype/StillImage" />
        <cc:license
           rdf:resource="http://web.resource.org/cc/PublicDomain" />
        <dc:language>en</dc:language>
        <dc:title></dc:title>
      </cc:Work>
    </rdf:RDF>
  </metadata>
  <sodipodi:namedview
     inkscape:window-height="739"
     inkscape:window-width="1332"
     inkscape:pageshadow="2"
     inkscape:pageopacity="0.0"
     guidetolerance="10.0"
     gridtolerance="10.0"
     objecttolerance="10.0"
     borderopacity="1.0"
     bordercolor="#666666"
     pagecolor="#ffffff"
     id="base"
     showgrid="false"
     inkscape:zoom="0.5"
     inkscape:cx="283.33311"
     inkscape:cy="310.95001"
     inkscape:window-x="34"
     inkscape:window-y="1024"
     inkscape:current-layer="svg2"
     inkscape:window-maximized="1"
     inkscape:snap-global="false">
    <inkscape:grid
       type="xygrid"
       id="grid3034" />
  </sodipodi:namedview>
  <defs
     id="defs4">
    <inkscape:perspective
       sodipodi:type="inkscape:persp3d"
       inkscape:vp_x="0 : 290 : 1"
       inkscape:vp_y="0 : 1000 : 0"
       inkscape:vp_z="580 : 290 : 1"
       inkscape:persp3d-origin="290 : 193.33333 : 1"
       id="perspective12" />
    <style
       type="text/css"
       id="style6">
   
    .fil0 {fill:#EF7900}
   
  </style>
    <inkscape:perspective
       id="perspective6807"
       inkscape:persp3d-origin="29.116032 : 19.410688 : 1"
       inkscape:vp_z="58.232063 : 29.116032 : 1"
       inkscape:vp_y="0 : 1000 : 0"
       inkscape:vp_x="0 : 29.116032 : 1"
       sodipodi:type="inkscape:persp3d" />
    <inkscape:perspective
       id="perspective6954"
       inkscape:persp3d-origin="290 : 193.33333 : 1"
       inkscape:vp_z="580 : 290 : 1"
       inkscape:vp_y="0 : 1000 : 0"
       inkscape:vp_x="0 : 290 : 1"
       sodipodi:type="inkscape:persp3d" />
    <inkscape:perspective
       id="perspective2541"
       inkscape:persp3d-origin="240 : 160 : 1"
       inkscape:vp_z="480 : 240 : 1"
       inkscape:vp_y="0 : 1000 : 0"
       inkscape:vp_x="0 : 240 : 1"
       sodipodi:type="inkscape:persp3d" />
    <inkscape:perspective
       id="perspective2750"
       inkscape:persp3d-origin="215 : 143.33333 : 1"
       inkscape:vp_z="430 : 215 : 1"
       inkscape:vp_y="0 : 1000 : 0"
       inkscape:vp_x="0 : 215 : 1"
       sodipodi:type="inkscape:persp3d" />
    <inkscape:perspective
       id="perspective3730"
       inkscape:persp3d-origin="88.929146 : 101.19778 : 1"
       inkscape:vp_z="177.85829 : 151.79668 : 1"
       inkscape:vp_y="0 : 1000 : 0"
       inkscape:vp_x="0 : 151.79668 : 1"
       sodipodi:type="inkscape:persp3d" />
  </defs>
  <a
     id="a3072">
    <g
       id="g1327">
      <path
         id="path1329"
         style="fill:#111111;stroke:#eeeeee;stroke-width:3.40799999"
         d="M 66.275,1.768 C 24.94,1.768 1.704,23.139 1.704,66.804 L 1.704,516.927 C 1.704,557.771 22.598,579.156 63.896,579.156 L 515.92,579.156 C 557.227,579.156 578.149,558.84 578.149,516.927 L 578.149,66.804 C 578.149,24.203 557.227,1.768 514.627,1.768 C 514.624,1.768 66.133,1.625 66.275,1.768 z" />
    </g>
  </a>
  <g
     id="g1327-3"
     transform="matrix(1.4887701,0,0,1.4888106,-703.87313,-249.96612)" />
  <path
     style="opacity:0.46400003;fill:#fefefe;fill-opacity:0;stroke:none;stroke-width:65.80000305;stroke-linecap:butt;stroke-linejoin:round;stroke-miterlimit:4;stroke-dasharray:none;stroke-opacity:0.68181817"
     d="M 46.297608,79.065121 115.15377,12.384499 277.94096,5.3256215 352.12539,89.56954 l 37.28652,81.9726 15.92092,187.00516 35.53577,8.22098 84.28425,43.33195 45.80787,41.08837 -27.7396,83.98386 -73.61553,27.15053 L 229.52908,574.67438 38.637527,506.31106 9.039276,252.76137 Z"
     id="path3759"
     inkscape:connector-curvature="0"
     sodipodi:nodetypes="ccccccccccccccc" />
  <path
     style="color:#000000;display:inline;overflow:visible;visibility:visible;fill:#ffffff;fill-opacity:1;fill-rule:nonzero;stroke:none;stroke-width:65.80000305;stroke-linecap:butt;stroke-linejoin:round;stroke-miterlimit:4;stroke-dasharray:none;stroke-opacity:0.68181817;marker:none;enable-background:accumulate"
     d="m 300.2849,255.46742 c 0,0 0,120.86404 57.3017,120.86404 19.10051,0 29.38545,-15.53967 29.38545,-15.53967 5.8771,13.81303 17.6313,22.44619 30.85469,22.44619 19.10058,0 33.7934,-17.2663 33.7934,-37.98585 0,-13.81304 -5.87719,-25.89943 -14.69282,-32.80595 5.87709,0 29.38554,-12.0864 29.38554,-41.4391 l 0,0 0,0 c 0,-18.99291 -13.2235,-39.71245 -30.85476,-41.4391 -2.93855,-18.9929 -16.16204,-32.80594 -33.7933,-32.80594 l -1.46932,0 c 4.40786,-6.90651 8.81574,-15.53965 8.81574,-24.17278 0,-20.71958 -14.69281,-37.98586 -33.7934,-37.98586 -8.81557,0 -17.63123,3.45326 -23.50834,10.35978 -4.40782,-17.26629 -17.63131,-29.3527 -32.32404,-29.3527 l -4.40781,0 C 310.5698,96.617566 294.4078,82.804521 276.7765,82.804521 c -13.22344,0 -24.97764,6.906534 -32.32401,18.992929 -2.93855,-1.72664 -7.34634,-1.72664 -10.28492,-1.72664 -19.10055,0 -35.26256,17.2663 -35.26256,37.98585 l 0,3.45325 c -5.8771,-5.17989 -13.22348,-10.35976 -22.03911,-10.35976 -17.63128,0 -33.79329,17.26629 -33.79329,39.71246 0,3.45326 0,6.9065 1.46927,10.35978 -17.63128,1.72661 -30.85473,17.26629 -30.85473,37.98582 0,20.71955 14.69274,37.98585 33.79329,37.98585 2.93854,0 5.8771,0 7.34636,-1.72664 -7.34636,8.63316 -11.75419,20.71955 -11.75419,34.53259 l 0,1.72662 c -16.16201,3.45326 -29.38546,18.99292 -29.38546,37.98584 0,20.71955 14.69274,37.98583 33.79329,37.98583 2.93854,0 5.8771,0 8.81565,-1.72662 1.46926,18.99291 16.162,32.80593 33.79329,32.80593 11.75417,0 23.50838,-6.9065 29.38544,-18.99292 37.57252,3.09896 68.72229,-42.59913 77.54091,-50.25992 -1.70412,-21.18191 -0.0168,-40.07686 3.26916,-74.05735 z"
     id="path3770"
     inkscape:connector-curvature="0"
     sodipodi:nodetypes="cscsscccccscsscscscsscsscsscscsscsccc" />
  <path
     style="color:#000000;display:inline;overflow:visible;visibility:visible;fill:#ffffff;fill-opacity:1;fill-rule:nonzero;stroke:none;stroke-width:65.80000305;stroke-linecap:butt;stroke-linejoin:round;stroke-miterlimit:4;stroke-dasharray:none;stroke-opacity:0.68181817;marker:none;enable-background:accumulate"
     d="m 269.30532,369.319 c -0.35492,13.26103 -1.34444,27.68493 -1.34444,43.27167 -2.93854,75.97165 -39.67038,43.16571 -51.42458,84.60481 l 161.62009,0 c -7.34631,-18.99293 -36.73182,-6.90651 -44.0782,-50.07225 -2.93854,-18.99291 -5.87708,-48.34562 -5.87708,-55.25212 C 313.5833,376.60158 304.3519,359.7496 300.25876,334.90096"
     id="path3"
     inkscape:connector-curvature="0" />
  <circle
     style="color:#000000;clip-rule:nonzero;display:inline;overflow:visible;visibility:visible;opacity:1;isolation:auto;mix-blend-mode:normal;color-interpolation:sRGB;color-interpolation-filters:linearRGB;solid-color:#000000;solid-opacity:1;fill:none;fill-opacity:1;fill-rule:nonzero;stroke:#ffffff;stroke-width:24.44880486;stroke-linecap:butt;stroke-linejoin:miter;stroke-miterlimit:4;stroke-dasharray:none;stroke-dashoffset:0;stroke-opacity:1;marker:none;color-rendering:auto;image-rendering:auto;shape-rendering:auto;text-rendering:auto;enable-background:accumulate"
     id="path4155"
     cx="290"
     cy="290"
     r="255.78404" />
</svg>

<svg width="580" height="580" viewBox="0 0 580 580" fill="none" xmlns="http://www.w3.org/2000/svg">
<path d="M300.285 255.467C300.285 255.467 300.285 376.331 357.587 376.331C376.687 376.331 386.972 360.792 386.972 360.792C392.849 374.605 404.603 383.238 417.827 383.238C436.927 383.238 451.62 365.972 451.62 345.252C451.62 331.439 445.743 319.353 436.927 312.446C442.804 312.446 466.313 300.36 466.313 271.007C466.313 252.014 453.089 231.295 435.458 229.568C432.52 210.575 419.296 196.762 401.665 196.762H400.195C404.603 189.855 409.011 181.222 409.011 172.589C409.011 151.87 394.318 134.603 375.218 134.603C366.402 134.603 357.587 138.057 351.709 144.963C347.302 127.697 334.078 115.61 319.385 115.61H314.978C310.57 96.6175 294.408 82.8044 276.776 82.8044C263.553 82.8044 251.799 89.711 244.452 101.797C241.514 100.071 237.106 100.071 234.168 100.071C215.067 100.071 198.905 117.337 198.905 138.057V141.51C193.028 136.33 185.682 131.15 176.866 131.15C159.235 131.15 143.073 148.416 143.073 170.863C143.073 174.316 143.073 177.769 144.542 181.222C126.911 182.949 113.687 198.489 113.687 219.208C113.687 239.928 128.38 257.194 147.48 257.194C150.419 257.194 153.358 257.194 154.827 255.467C147.48 264.101 143.073 276.187 143.073 290V291.727C126.911 295.18 113.687 310.719 113.687 329.712C113.687 350.432 128.38 367.698 147.48 367.698C150.419 367.698 153.358 367.698 156.296 365.972C157.765 384.965 172.458 398.778 190.089 398.778C201.844 398.778 213.598 391.871 219.475 379.785C257.047 382.884 288.197 337.185 297.016 329.525C295.312 308.343 296.999 289.448 300.285 255.467H300.285Z" fill="white"/>
<path d="M269.305 369.319C268.95 382.58 267.961 397.004 267.961 412.591C265.022 488.562 228.29 455.756 216.536 497.195H378.156C370.81 478.202 341.425 490.289 334.078 447.123C331.14 428.13 328.201 398.778 328.201 391.871C313.583 376.602 304.352 359.75 300.259 334.901" fill="white"/>
<path d="M290 545.784C431.266 545.784 545.784 431.266 545.784 290C545.784 148.734 431.266 34.2161 290 34.2161C148.734 34.2161 34.2159 148.734 34.2159 290C34.2159 431.266 148.734 545.784 290 545.784Z" stroke="white" stroke-width="24.4488"/>
</svg>
